X:11962
T:no name
R:reel
H:See also "The Old Torn Petticoat", #294
Z:id:hn-reel-570
M:C|
K:Ador
c2Bc AGED|G2BG DGBG|c2Bc AGED|GABG ~A3B|
cA~A2 AGEF|G2BG DGBG|c2Bc AGED|GABG ~A3B||
|:c3d eg~g2|eaaf gedB|1 c3d eg~g2|eaag a4:|2 c2Bc AGED|GABG ~A3B||
